X:420
T: Bird in the Bush
M: 4/4
L: 1/8
R: Reel
K: G
d2eB dB(3BAB|dBAB G2AG|EA(3AAA BG(3GGG|BGBd g3e|
d2eB dB(3BAB|dBAB G2GE|DEGA B2Bc|dBAc BG G2 :|
(3Bcd ef g2fg|afdf gfed|(3Bcd ef gfgb|agab g2ga|
bg (3gfg agef|g2ge dBAB|DEGA B2Bc|dBAc BG G2 :|
